X:5627
T:Rond de St.Vincent
O:england
C:Robert Tablatures
M:4/4
L:1/8
K:G
ABcA AGA2|ABcA AGA2|ABcA AGA2:|
M:5/4
L:1/8
|:AB cA B2 c2 AG|AB cA B2 c2 A2|\
AB cA B2 c2 AG |AB cA B2 c2 A2:|


